public/images/logos/auth_providers/discord-dark.svg

<svg width="62" height="48" viewBox="0 0 62 48" fill="none" xmlns="http://www.w3.org/2000/svg">
<g clip-path="url(#clip0_219_19)">
<path opacity="0.993" fill-rule="evenodd" clip-rule="evenodd" d="M21.6367 -0.5H21.8372L23.4387 2.7011L23.788 2.8013C25.9972 2.4874 28.2186 2.3219 30.4489 2.2993L37.5613 2.7499L39.1628 -0.5H39.3633C43.7003 0.2949 47.8915 1.5944 51.9339 3.3992C57.6772 11.5201 60.866 20.5535 61.5 30.4993V35.9996L61.2484 38.5997C56.5095 42.0914 51.3164 44.7253 45.6738 46.5H45.4735C44.2657 44.8531 43.1795 43.1203 42.2198 41.2997C42.1709 41.172 42.1522 41.0367 42.1696 40.9001C43.9111 40.2981 45.5801 39.5295 47.1759 38.5997C47.297 38.5232 47.297 38.4399 47.1759 38.3496C46.8148 38.1111 46.4655 37.8623 46.1261 37.6007C37.0033 41.6396 27.7064 42.0895 18.2307 38.9497C17.1068 38.5551 16.0031 38.1049 14.9239 37.6007L13.8241 38.3999C13.6911 38.4681 13.6911 38.5331 13.8241 38.5997C15.4733 39.5239 17.1795 40.3425 18.9324 41.0505C17.9331 42.9605 16.7962 44.7777 15.5265 46.5H15.3262C9.7586 44.7379 4.6145 42.1532 -0.098 38.7501C-0.3073 37.5657 -0.4425 36.3819 -0.5 35.1993V31.1001C-0.1229 23.0897 1.9969 15.5571 5.8591 8.5009C6.77603 6.86949 7.74564 5.26825 8.7664 3.6997C9.22947 3.32655 9.75541 3.03905 10.3195 2.8507C13.9868 1.3442 17.7595 0.2265 21.6367 -0.5ZM19.4335 19.1999C22.2151 19.0643 24.1703 20.2637 25.2908 22.8C26.2748 25.6621 25.6901 28.1448 23.5379 30.25C21.2768 31.9351 19.0376 31.9 16.8295 30.1494C14.4353 27.5936 14.0847 24.7775 15.7755 21.7001C16.6849 20.4077 17.9054 19.5741 19.4335 19.1999ZM39.9669 19.1999C43.4278 19.1417 45.5152 20.8073 46.2268 24.1994C46.5905 26.9735 45.6393 29.1564 43.3699 30.7499C40.7491 32.0171 38.494 31.5327 36.6091 29.3005C34.8116 26.6351 34.8116 23.9688 36.6091 21.3005C37.5098 20.2279 38.6277 19.5263 39.9669 19.1999Z" fill="white"/>
</g>
<defs>
<clipPath id="clip0_219_19">
<rect width="62" height="48" fill="white"/>
</clipPath>
</defs>
</svg>

<svg xmlns="http://www.w3.org/2000/svg" width="62" height="48" fill="none"><g clip-path="url(#a)"><path fill="#fff" fill-rule="evenodd" d="M21.637-.5h.2l1.602 3.201.349.1a51 51 0 0 1 6.66-.502l7.113.45L39.163-.5h.2a55 55 0 0 1 12.57 3.9Q60.55 15.58 61.5 30.5V36l-.252 2.6a52.8 52.8 0 0 1-15.574 7.9h-.2a41.5 41.5 0 0 1-3.254-5.2.8.8 0 0 1-.05-.4 28.3 28.3 0 0 0 5.006-2.3q.182-.115 0-.25-.54-.358-1.05-.75-13.683 6.06-27.895 1.35a36 36 0 0 1-3.307-1.35l-1.1.8q-.2.1 0 .2a45 45 0 0 0 5.108 2.45 42 42 0 0 1-3.405 5.45h-.2A54 54 0 0 1-.099 38.75 28 28 0 0 1-.5 35.2v-4.1Q.065 19.085 5.86 8.5a87 87 0 0 1 2.906-4.8c.463-.373.99-.661 1.553-.85A57.7 57.7 0 0 1 21.638-.5m-2.204 19.7q4.175-.204 5.858 3.6 1.476 4.293-1.753 7.45-3.393 2.526-6.709-.1-3.59-3.834-1.054-8.45 1.365-1.939 3.658-2.5m20.534 0q5.191-.088 6.26 5 .546 4.16-2.857 6.55-3.932 1.9-6.76-1.45-2.697-3.997 0-8 1.35-1.61 3.357-2.1" clip-rule="evenodd" opacity=".993"/></g><defs><clipPath id="a"><path fill="#fff" d="M0 0h62v48H0z"/></clipPath></defs></svg>
